public/ember-cli-visualeditor/styles/themes/apex/images/icons/templateAdd-rtl.svg

<?xml version="1.0" encoding="utf-8"?>
<svg xmlns="http://www.w3.org/2000/svg" width="24" height="24" viewBox="0 0 24 24">
    <g id="g690">
        <path d="M0 6h4v-4h2v4h4v2h-4v4h-2v-4h-4z" id="path692"/>
    </g>
    <path d="M5 13v7h16c1.1 0 2-.9 2-2v-11h-12v-1h13v12c0 1.7-1.3 3-3 3h-17v-8h1z" id="path694"/>
</svg>

<?xml version="1.0" encoding="utf-8"?>
<svg xmlns="http://www.w3.org/2000/svg" width="24" height="24" viewBox="0 0 24 24">
    <g id="g690">
        <path d="M0 6h4V2h2v4h4v2H6v4H4V8H0z" id="path692"/>
    </g>
    <path d="M5 13v7h16c1.1 0 2-.9 2-2V7H11V6h13v12c0 1.7-1.3 3-3 3H4v-8h1z" id="path694"/>
</svg>
